src/_includes/svg/logo.svg

<svg class="logo" width="194" height="80" viewBox="0 0 194 80" fill="none" xmlns="http://www.w3.org/2000/svg">
<path d="M36.1916 48.6873C34.8013 48.6873 33.615 48.4251 32.6327 47.9006C31.6587 47.3678 30.9137 46.5978 30.3975 45.5905C29.8814 44.5749 29.6233 43.3511 29.6233 41.9193V36.9369C29.6233 35.4967 29.8814 34.273 30.3975 33.2657C30.9137 32.2584 31.6587 31.4884 32.6327 30.9556C33.615 30.4228 34.8013 30.1564 36.1916 30.1564C37.3404 30.1564 38.3601 30.402 39.2509 30.8932C40.15 31.3843 40.8909 32.0961 41.4736 33.0285C42.0647 33.9608 42.4726 35.093 42.6973 36.425H39.151C39.0178 35.8172 38.8097 35.3053 38.5266 34.889C38.2519 34.4645 37.9148 34.1398 37.5152 33.915C37.1239 33.6903 36.6827 33.5779 36.1916 33.5779C35.2342 33.5779 34.4891 33.8734 33.9564 34.4645C33.4319 35.0472 33.1697 35.8714 33.1697 36.9369V41.9193C33.1697 42.9849 33.4319 43.809 33.9564 44.3917C34.4891 44.9745 35.2342 45.2658 36.1916 45.2658C36.9408 45.2658 37.5735 45.0203 38.0896 44.5291C38.6057 44.0296 38.9595 43.3262 39.151 42.4188H42.6973C42.4642 43.7424 42.0522 44.8746 41.4611 45.8153C40.8784 46.7476 40.1416 47.4594 39.2509 47.9506C38.3601 48.4417 37.3404 48.6873 36.1916 48.6873ZM42.8227 48.5L49.7655 30.3437H51.9383L58.8811 48.5H55.1974L50.8519 36.1003L46.5064 48.5H42.8227ZM46.1568 45.5905V42.2939H55.7094V45.5905H46.1568ZM61.9785 41.195V37.8984H68.2969C68.8297 37.8984 69.2543 37.7028 69.5706 37.3115C69.8953 36.9203 70.0618 36.4041 70.0701 35.7631C70.0701 35.1221 69.9078 34.606 69.5831 34.2147C69.2668 33.8235 68.838 33.6278 68.2969 33.6278H61.9785V30.3312H68.5717C69.5789 30.3312 70.4572 30.556 71.2064 31.0055C71.964 31.4551 72.5509 32.0878 72.9671 32.9036C73.3834 33.7194 73.5915 34.6726 73.5915 35.7631C73.5915 36.8537 73.3792 37.8069 72.9546 38.6227C72.5384 39.4385 71.9557 40.0712 71.2064 40.5207C70.4572 40.9703 69.5789 41.195 68.5717 41.195H61.9785ZM60.6174 48.5V30.3312H64.0388V48.5H60.6174ZM70.2075 48.5L65.7995 40.6331L69.4582 40.0587L74.3532 48.5H70.2075ZM76.7887 48.5V30.3437H80.2101V48.5H76.7887ZM78.3121 48.5V45.2034H88.9511V48.5H78.3121ZM98.6546 41.195V37.8984H104.973C105.506 37.8984 105.93 37.7028 106.247 37.3115C106.571 36.9203 106.738 36.4041 106.746 35.7631C106.746 35.1221 106.584 34.606 106.259 34.2147C105.943 33.8235 105.514 33.6278 104.973 33.6278H98.6546V30.3312H105.248C106.255 30.3312 107.133 30.556 107.883 31.0055C108.64 31.4551 109.227 32.0878 109.643 32.9036C110.06 33.7194 110.268 34.6726 110.268 35.7631C110.268 36.8537 110.055 37.8069 109.631 38.6227C109.215 39.4385 108.632 40.0712 107.883 40.5207C107.133 40.9703 106.255 41.195 105.248 41.195H98.6546ZM97.2935 48.5V30.3312H100.715V48.5H97.2935ZM106.884 48.5L102.476 40.6331L106.134 40.0587L111.029 48.5H106.884ZM111.092 48.5L118.035 30.3437H120.208L127.151 48.5H123.467L119.122 36.1003L114.776 48.5H111.092ZM114.426 45.5905V42.2939H123.979V45.5905H114.426ZM120.033 28.8578V25.4363H123.455V28.8578H120.033ZM114.788 28.8578V25.4363H118.21V28.8578H114.788ZM128.887 48.5V30.3437H132.308V48.5H128.887ZM130.136 41.2949V37.9983H139.439V41.2949H130.136ZM130.136 33.6403V30.3437H140.812V33.6403H130.136ZM146.507 48.5V31.8297H149.928V48.5H146.507ZM141.562 33.6403V30.3437H154.873V33.6403H141.562ZM159.656 30.3437V48.5H156.11V30.3437H159.656ZM162.891 48.4875V30.3437H167.074L173.83 44.2544L173.53 44.579V30.3437H176.802V48.4875H172.593L165.863 34.7891L166.162 34.4645V48.4875H162.891ZM186.904 38.348H193.198V41.8943C193.198 43.2596 192.923 44.4542 192.373 45.4781C191.824 46.4937 191.054 47.2846 190.063 47.8507C189.081 48.4084 187.924 48.6873 186.592 48.6873C185.252 48.6873 184.078 48.4251 183.071 47.9006C182.072 47.3678 181.293 46.6228 180.735 45.6654C180.186 44.6998 179.911 43.5759 179.911 42.2939V36.9369C179.911 35.5717 180.186 34.3812 180.735 33.3656C181.285 32.35 182.051 31.5633 183.033 31.0055C184.024 30.4395 185.185 30.1564 186.517 30.1564C187.616 30.1564 188.615 30.3812 189.514 30.8307C190.421 31.2803 191.183 31.9088 191.799 32.7163C192.415 33.5238 192.831 34.4686 193.048 35.5509H189.352C189.168 34.9598 188.802 34.5061 188.253 34.1898C187.712 33.8651 187.133 33.7028 186.517 33.7028C185.593 33.7028 184.852 33.9983 184.294 34.5893C183.737 35.1804 183.458 35.9629 183.458 36.9369V42.2939C183.458 43.1514 183.745 43.8423 184.319 44.3668C184.894 44.8829 185.651 45.141 186.592 45.141C187.516 45.141 188.257 44.8621 188.815 44.3043C189.372 43.7382 189.651 42.9516 189.651 41.9443V41.6446H186.904V38.348Z" fill="black"/>
<path d="M40 3.8147e-06C29.3913 4.36261e-06 19.2172 4.21428 11.7157 11.7157C4.21427 19.2172 2.53014e-07 29.3913 0 40C-2.53014e-07 50.6087 4.21427 60.7828 11.7157 68.2843C19.2172 75.7857 29.3913 80 40 80V72C31.5131 72 23.3737 68.6286 17.3726 62.6274C11.3714 56.6263 8 48.4869 8 40C8 31.5131 11.3714 23.3738 17.3726 17.3726C23.3737 11.3714 31.5131 8 40 8L40 3.8147e-06Z" fill="black" fill-opacity="0.5"/>
<path d="M40 72C35.7977 72 31.6365 71.1723 27.7541 69.5641C23.8717 67.956 20.3441 65.5989 17.3726 62.6274C14.4011 59.6559 12.044 56.1283 10.4359 52.2459C8.8277 48.3634 8 44.2023 8 40C8 35.7977 8.82771 31.6365 10.4359 27.7541C12.044 23.8717 14.4011 20.3441 17.3726 17.3726C20.3441 14.4011 23.8717 12.044 27.7541 10.4359C31.6366 8.8277 35.7977 8 40 8L40 14.4C36.6382 14.4 33.3092 15.0622 30.2033 16.3487C27.0974 17.6352 24.2752 19.5209 21.8981 21.8981C19.5209 24.2752 17.6352 27.0974 16.3487 30.2033C15.0622 33.3092 14.4 36.6382 14.4 40C14.4 43.3618 15.0622 46.6908 16.3487 49.7967C17.6352 52.9026 19.5209 55.7248 21.8981 58.1019C24.2752 60.4791 27.0974 62.3648 30.2033 63.6513C33.3092 64.9378 36.6382 65.6 40 65.6L40 72Z" fill="black" fill-opacity="0.4"/>
</svg>

<svg xmlns="http://www.w3.org/2000/svg" width="194" height="80" fill="none" class="logo" viewBox="0 0 194 80">
  <path fill="#000" d="M36.2 48.69a7.47 7.47 0 0 1-3.57-.79 5.35 5.35 0 0 1-2.23-2.31 8.02 8.02 0 0 1-.78-3.67v-4.98c0-1.44.26-2.67.78-3.67a5.3 5.3 0 0 1 2.23-2.31c.98-.54 2.17-.8 3.56-.8a6 6 0 0 1 5.28 2.87 9 9 0 0 1 1.23 3.4h-3.55a4.37 4.37 0 0 0-.62-1.54 2.9 2.9 0 0 0-1.01-.98 2.7 2.7 0 0 0-1.33-.33c-.96 0-1.7.3-2.23.88a3.57 3.57 0 0 0-.79 2.48v4.98c0 1.06.26 1.89.79 2.47.53.58 1.27.88 2.23.88.75 0 1.38-.25 1.9-.74a4 4 0 0 0 1.06-2.11h3.55a9.38 9.38 0 0 1-1.24 3.4 6.02 6.02 0 0 1-2.2 2.13c-.9.5-1.92.74-3.07.74Zm6.62-.19 6.95-18.16h2.17l6.94 18.16H55.2l-4.35-12.4-4.34 12.4h-3.69Zm3.34-2.91v-3.3h9.55v3.3h-9.55Zm15.82-4.4v-3.3h6.32c.53 0 .95-.19 1.27-.58.33-.39.5-.9.5-1.55 0-.64-.16-1.15-.49-1.55a1.55 1.55 0 0 0-1.28-.58h-6.32v-3.3h6.6c1 0 1.88.23 2.63.68a4.57 4.57 0 0 1 1.76 1.9c.41.8.62 1.76.62 2.85a6 6 0 0 1-.64 2.86 4.6 4.6 0 0 1-1.74 1.9c-.75.45-1.63.67-2.64.67h-6.6Zm-1.36 7.31V30.33h3.42V48.5h-3.42Zm9.59 0-4.41-7.87 3.66-.57 4.9 8.44H70.2Zm6.58 0V30.34h3.42V48.5h-3.42Zm1.52 0v-3.3h10.64v3.3H78.31Zm20.34-7.3v-3.3h6.32c.54 0 .96-.2 1.28-.59.32-.39.49-.9.5-1.55 0-.64-.17-1.15-.5-1.55-.3-.39-.74-.58-1.28-.58h-6.32v-3.3h6.6c1 0 1.88.23 2.63.68a4.57 4.57 0 0 1 1.76 1.9c.42.8.63 1.76.63 2.85a6 6 0 0 1-.64 2.86 4.6 4.6 0 0 1-1.75 1.9c-.75.45-1.63.67-2.63.67h-6.6Zm-1.36 7.3V30.33h3.42V48.5H97.3Zm9.6 0-4.41-7.87 3.65-.57 4.9 8.44h-4.15Zm4.2 0 6.94-18.16h2.18l6.94 18.16h-3.68l-4.35-12.4-4.34 12.4h-3.69Zm3.34-2.91v-3.3h9.55v3.3h-9.55Zm5.6-16.73v-3.42h3.42v3.42h-3.42Zm-5.24 0v-3.42h3.42v3.42h-3.42Zm14.1 19.64V30.34h3.42V48.5h-3.42Zm1.25-7.2V38h9.3v3.3h-9.3Zm0-7.66v-3.3h10.67v3.3h-10.67ZM146.5 48.5V31.83h3.42V48.5h-3.42Zm-4.95-14.86v-3.3h13.31v3.3h-13.3Zm18.1-3.3V48.5h-3.55V30.34h3.55Zm3.23 18.15V30.34h4.18l6.76 13.91-.3.33V30.34h3.27V48.5h-4.2l-6.74-13.7.3-.33V48.5h-3.27Zm24.01-10.14h6.3v3.54a7.5 7.5 0 0 1-.83 3.59 5.92 5.92 0 0 1-2.3 2.37c-.99.56-2.15.84-3.48.84a7.52 7.52 0 0 1-3.52-.79 5.81 5.81 0 0 1-2.33-2.23 6.7 6.7 0 0 1-.83-3.38v-5.35c0-1.37.28-2.56.83-3.57a5.87 5.87 0 0 1 2.3-2.36 6.9 6.9 0 0 1 3.48-.85 6.6 6.6 0 0 1 5.28 2.56 6.8 6.8 0 0 1 1.25 2.83h-3.7a2.32 2.32 0 0 0-1.1-1.36 3.32 3.32 0 0 0-1.73-.49c-.93 0-1.67.3-2.23.89a3.3 3.3 0 0 0-.83 2.35v5.35c0 .86.28 1.55.86 2.08.57.51 1.33.77 2.27.77a3 3 0 0 0 2.22-.84 3.2 3.2 0 0 0 .84-2.36v-.3h-2.75v-3.3Z"/>
  <path fill="#000" fill-opacity=".5" d="M40 0a40 40 0 0 0 0 80v-8a32 32 0 1 1 0-64V0Z"/>
  <path fill="#000" fill-opacity=".4" d="M40 72a32 32 0 1 1 0-64v6.4a25.6 25.6 0 0 0 0 51.2V72Z"/>
</svg>
